www/assets/icons/ice_skating.svg

<svg xmlns="http://www.w3.org/2000/svg" width="24" height="24" viewBox="0 0 24 24" fill='currentColor'><path d="M7.5 8c0-.28.22-.5.5-.5h2.52l-.02-1H8c-.28 0-.5-.22-.5-.5s.22-.5.5-.5h2.5v-3h-8v15h3v2h-4v2h16c2.76 0 5-2.24 5-5h-2c0 1.66-1.34 3-3 3h-2v-2h3v-2.88c0-2.1-1.55-3.53-3.03-3.88l-2.7-.67c-.87-.22-1.57-.81-1.95-1.57H8c-.28 0-.5-.22-.5-.5m6 11.5h-6v-2h6z"/></svg>

<svg width="24" height="24" viewBox="0 0 24 24" xmlns="http://www.w3.org/2000/svg" fill='currentColor'><path d="M7.5 8C7.5 7.72 7.72 7.5 8 7.5H10.52L10.5 6.5H8C7.72 6.5 7.5 6.28 7.5 6C7.5 5.72 7.72 5.5 8 5.5H10.5V2.5H2.5V17.5H5.5V19.5H1.5V21.5H17.5C20.26 21.5 22.5 19.26 22.5 16.5H20.5C20.5 18.16 19.16 19.5 17.5 19.5H15.5V17.5H18.5V14.62C18.5 12.52 16.95 11.09 15.47 10.74L12.77 10.07C11.9 9.85 11.2 9.26 10.82 8.5H8C7.72 8.5 7.5 8.28 7.5 8ZM13.5 19.5H7.5V17.5H13.5V19.5Z"/></svg>
